html/assets/images/dynamic/business-enabler-10.svg

<svg width="70" height="70" viewBox="0 0 70 70" fill="none" xmlns="http://www.w3.org/2000/svg">
<path d="M41.9183 63.0817C57.4274 59.2608 66.9026 43.5908 63.0817 28.0817C59.2608 12.5726 43.5908 3.09748 28.0817 6.91836C12.5726 10.7392 3.09743 26.4093 6.91831 41.9184C10.7392 57.4274 26.4092 66.9026 41.9183 63.0817Z" stroke="#00999A" stroke-width="2" stroke-linejoin="round"/>
<path d="M35.0025 63.9178C28.0614 63.9178 22.3184 53.148 21.3682 39.1281" stroke="#00999A" stroke-width="2" stroke-linejoin="round"/>
<path d="M35.002 6.07507V63.9178" stroke="#00999A" stroke-width="2" stroke-linejoin="round"/>
<path d="M42.2324 20.7973C39.9187 21.0865 37.4948 21.2242 35.0021 21.2242C26.1742 21.2242 18.269 19.3375 12.9668 16.3765" stroke="#00999A" stroke-width="2" stroke-linejoin="round"/>
<path d="M43.2653 49.3331C40.6487 48.9612 37.8667 48.7684 35.0021 48.7684C26.1742 48.7684 18.269 50.6552 12.9668 53.6162" stroke="#00999A" stroke-width="2" stroke-linejoin="round"/>
<path d="M21.2293 39.128C23.5111 39.128 25.3609 37.2782 25.3609 34.9964C25.3609 32.7145 23.5111 30.8647 21.2293 30.8647C18.9474 30.8647 17.0977 32.7145 17.0977 34.9964C17.0977 37.2782 18.9474 39.128 21.2293 39.128Z" stroke="#00999A" stroke-width="2" stroke-linejoin="round"/>
<path d="M17.0977 34.9963H6.08008" stroke="#00999A" stroke-width="2" stroke-linejoin="round"/>
<path d="M63.9231 34.9963H25.3613" stroke="#00999A" stroke-width="2" stroke-linejoin="round"/>
<path d="M46.0193 23.9787C48.3011 23.9787 50.1509 22.1289 50.1509 19.8471C50.1509 17.5652 48.3011 15.7155 46.0193 15.7155C43.7375 15.7155 41.8877 17.5652 41.8877 19.8471C41.8877 22.1289 43.7375 23.9787 46.0193 23.9787Z" stroke="#00999A" stroke-width="2" stroke-linejoin="round"/>
<path d="M21.3682 30.8648C22.3184 16.8448 28.0614 6.07507 35.0025 6.07507" stroke="#00999A" stroke-width="2" stroke-linejoin="round"/>
<path d="M47.3963 54.2773C49.6781 54.2773 51.5279 52.4275 51.5279 50.1457C51.5279 47.8638 49.6781 46.014 47.3963 46.014C45.1144 46.014 43.2646 47.8638 43.2646 50.1457C43.2646 52.4275 45.1144 54.2773 47.3963 54.2773Z" stroke="#00999A" stroke-width="2" stroke-linejoin="round"/>
<path d="M45.2621 54.2773C42.7419 60.1993 39.0785 63.9178 35.002 63.9178" stroke="#00999A" stroke-width="2" stroke-linejoin="round"/>
<path d="M47.7412 23.9788C48.4023 27.3805 48.7741 31.0989 48.7741 34.9964C48.7741 38.8939 48.4023 42.6124 47.7412 46.0141" stroke="#00999A" stroke-width="2" stroke-linejoin="round"/>
<path d="M35.002 6.07507C39.0785 6.07507 42.7419 9.79353 45.2621 15.7155" stroke="#00999A" stroke-width="2" stroke-linejoin="round"/>
<path d="M57.0372 53.6163C55.3845 52.6935 53.4978 51.881 51.3906 51.1924" stroke="#00999A" stroke-width="2" stroke-linejoin="round"/>
<path d="M57.0368 16.3765C55.0536 17.4782 52.7124 18.4423 50.0957 19.1997" stroke="#00999A" stroke-width="2" stroke-linejoin="round"/>
</svg>

<svg width="70" height="70" fill="none" xmlns="http://www.w3.org/2000/svg"><path d="M41.918 63.082c15.51-3.821 24.985-19.491 21.164-35-3.821-15.51-19.491-24.985-35-21.164-15.51 3.821-24.985 19.491-21.164 35 3.821 15.51 19.491 24.985 35 21.164zm-6.916.836c-6.94 0-12.684-10.77-13.634-24.79M35.002 6.075v57.843" stroke="#00999A" stroke-width="2" stroke-linejoin="round"/><path d="M42.232 20.797c-2.313.29-4.737.427-7.23.427-8.828 0-16.733-1.887-22.035-4.848m30.298 32.957a58.992 58.992 0 00-8.263-.565c-8.828 0-16.733 1.887-22.035 4.848m8.263-14.488a4.132 4.132 0 100-8.263 4.132 4.132 0 000 8.263zm-4.132-4.132H6.08m57.843 0H25.361" stroke="#00999A" stroke-width="2" stroke-linejoin="round"/><path d="M46.02 23.979a4.132 4.132 0 100-8.264 4.132 4.132 0 000 8.264zm-24.652 6.886c.95-14.02 6.693-24.79 13.634-24.79m12.394 48.202a4.132 4.132 0 100-8.263 4.132 4.132 0 000 8.263zm-2.134 0c-2.52 5.922-6.184 9.64-10.26 9.64" stroke="#00999A" stroke-width="2" stroke-linejoin="round"/><path d="M47.741 23.979c.661 3.402 1.033 7.12 1.033 11.017 0 3.898-.372 7.616-1.033 11.018M35.002 6.075c4.076 0 7.74 3.719 10.26 9.64m11.775 37.901c-1.652-.922-3.54-1.735-5.646-2.424m5.646-34.815c-1.983 1.101-4.325 2.065-6.941 2.823" stroke="#00999A" stroke-width="2" stroke-linejoin="round"/></svg>
